packages/icons/src/gcp-secret-manager.svg

<svg width="32" height="33" viewBox="0 0 32 33" fill="none" xmlns="http://www.w3.org/2000/svg">
<path d="M6.95 29.3244L0.387499 17.9556C-0.125001 17.0681 -0.125001 15.9681 0.387499 15.0806L6.95 3.71188C7.4625 2.82438 8.4125 2.27438 9.4375 2.27438H22.5625C23.5875 2.27438 24.5375 2.82438 25.05 3.71188L31.6125 15.0806C32.125 15.9681 32.125 17.0681 31.6125 17.9556L25.05 29.3244C24.5375 30.2119 23.5875 30.7619 22.5625 30.7619H9.4375C8.4125 30.7619 7.4625 30.2119 6.95 29.3244Z" fill="url(#paint0_linear_2724_318608)"/>
<path fill-rule="evenodd" clip-rule="evenodd" d="M31.9959 16.5935C31.9836 17.0652 31.8558 17.5343 31.6125 17.9556L25.05 29.3244C24.5375 30.2119 23.5875 30.7619 22.5625 30.7619H14.0788L6.01712 22.4564L6.15151 19.2481L6.59406 11.8869L10.0666 10.7097L25.9891 10.5817L31.9959 16.5935Z" fill="#3D7BE2"/>
<path d="M26 10.5747V22.4615H22.0377C21.9335 22.4615 21.8491 22.3771 21.8491 22.2729V21.1408C21.8491 21.0366 21.9335 20.9521 22.0377 20.9521L24.4901 20.9517V12.0837L9.76071 12.0842C9.6565 12.0842 9.57203 11.9997 9.57203 11.8955V10.7634C9.57203 10.6592 9.6565 10.5747 9.76071 10.5747H26ZM10.3091 10.5747C10.4133 10.5747 10.4978 10.6592 10.4978 10.7634V11.8955C10.4978 11.9997 10.4133 12.0842 10.3091 12.0842L7.509 12.0837V20.9517L22.736 20.9521C22.8402 20.9521 22.9247 21.0366 22.9247 21.1408V22.2729C22.9247 22.3771 22.8402 22.4615 22.736 22.4615H6V10.5747H10.3091ZM21.4271 14.4427V15.8988L21.4879 15.9233L22.8382 15.446L23.1179 16.2659L21.7555 16.7309L21.719 16.8288L22.6557 18.0891L21.9502 18.603L21.0379 17.3427H20.9527L20.0404 18.603L19.3349 18.0891L20.2594 16.8288L20.235 16.7309L18.8726 16.2659L19.1524 15.446L20.4905 15.9233L20.5635 15.8988V14.4427H21.4271ZM11.196 14.4427V15.8844L11.2568 15.9086L12.607 15.4361L12.8868 16.2478L11.5244 16.7082L11.4879 16.8051L12.4246 18.053L11.719 18.5618L10.8067 17.314H10.7216L9.80927 18.5618L9.10375 18.053L10.0282 16.8051L10.0039 16.7082L8.64151 16.2478L8.92128 15.4361L10.2593 15.9086L10.3323 15.8844V14.4427H11.196ZM16.2903 14.4427V15.8844L16.3511 15.9086L17.7014 15.4361L17.9811 16.2478L16.6187 16.7082L16.5823 16.8051L17.5189 18.053L16.8134 18.5618L15.9011 17.314H15.8159L14.9036 18.5618L14.1981 18.053L15.1226 16.8051L15.0982 16.7082L13.7358 16.2478L14.0156 15.4361L15.3537 15.9086L15.4267 15.8844V14.4427H16.2903Z" fill="white"/>
<defs>
<linearGradient id="paint0_linear_2724_318608" x1="16" y1="2.27656" x2="16" y2="30.7155" gradientUnits="userSpaceOnUse">
<stop stop-color="#4387FD"/>
<stop offset="1" stop-color="#4683EA"/>
</linearGradient>
</defs>
</svg>

<svg viewBox="0 0 32 33" fill="currentColor" xmlns="http://www.w3.org/2000/svg"><path d="M6.95 29.324.387 17.956a2.88 2.88 0 0 1 0-2.875L6.95 3.71a2.877 2.877 0 0 1 2.487-1.437h13.126c1.024 0 1.975.55 2.487 1.438l6.563 11.369a2.88 2.88 0 0 1 0 2.875L25.05 29.324a2.877 2.877 0 0 1-2.488 1.438H9.438a2.877 2.877 0 0 1-2.487-1.438Z" fill="url(#a)"/><path fill-rule="evenodd" clip-rule="evenodd" d="M31.996 16.593c-.012.472-.14.941-.383 1.363L25.05 29.324a2.877 2.877 0 0 1-2.488 1.438H14.08l-8.062-8.306.135-3.208.442-7.361 3.473-1.177 15.922-.128 6.007 6.011Z" fill="#3D7BE2"/><path d="M26 10.575v11.887h-3.962a.189.189 0 0 1-.189-.19v-1.131c0-.104.084-.189.189-.189h2.452v-8.868H9.76a.189.189 0 0 1-.188-.188v-1.133c0-.104.085-.188.189-.188H26Zm-15.69 0c.103 0 .188.084.188.188v1.133a.189.189 0 0 1-.189.188h-2.8v8.868h15.227a.19.19 0 0 1 .189.189v1.132a.189.189 0 0 1-.189.189H6V10.575h4.31Zm11.117 3.868v1.456l.06.024 1.351-.477.28.82-1.362.465-.037.098.937 1.26-.706.514-.912-1.26h-.085l-.913 1.26-.705-.514.924-1.26-.024-.098-1.362-.465.28-.82 1.338.477.073-.024v-1.456h.863Zm-10.231 0v1.441l.06.025 1.351-.473.28.812-1.363.46-.036.097.937 1.248-.706.509-.912-1.248h-.085l-.913 1.248-.705-.509.924-1.248-.024-.097-1.362-.46.28-.812 1.337.473.073-.025v-1.441h.864Zm5.094 0v1.441l.061.025 1.35-.473.28.812-1.362.46-.037.097.937 1.248-.706.509-.912-1.248h-.085l-.912 1.248-.706-.509.925-1.248-.025-.097-1.362-.46.28-.812 1.338.473.073-.025v-1.441h.863Z" fill="#fff"/><defs><linearGradient id="a" x1="16" y1="2.277" x2="16" y2="30.715" gradientUnits="userSpaceOnUse"><stop stop-color="#4387FD"/><stop offset="1" stop-color="#4683EA"/></linearGradient></defs></svg>
